X:995
T: Shannon Pilot (with piano acc.)
C: BB
L: 1/8
M: 4/4
R: reel
Q: 1/4=175
V: 1 program 1 110 %fiddle
V: 2 bass volume = 70 program 1 01 m=D
K: Ador
[V:1] "Am"A2 cA eAcA|"G" dB ~B2 "Em"EFGB|"Am"A2 cA eAce|"D"affa "G"gdBG|
[V:2] A,,2[A2C2E2]E,,2[E2C2A2]|G,,2[G2D2B2]E,2[E2G2B2]|A,,2[A2C2E2]E,,2[E2C2A2]|D,2[A2D2F2]G,,2[G2D2B2]|
%
[V:1] "Am"A2 cA eAcA|"G" dB ~B2 "Em"EFGB|"Am"ABce "Em7"dBGE|"Am" (3ABc "G"BG "Am"A4 :|
[V:2] A,,2[A2C2E2]E,,2[E2C2A2]|G,,2[G2D2B2]E,2[E2G2B2]|A,,2[A2C2E2]E,2[D2G2B2]|[A,,2E,2C2][G,,2D,2B,2][A,,4C4E,4]:|
%
[V:1] "Am" e2 ag eage|"G"dB ~B2 "Em"GEGB|"Am"Acea "D"fddc|"Em"BGEG "Am"A4|
[V:2] A,,2[A2C2E2]E,,2[E2C2A2]|G,,2[G2D2B2]E,2[E2G2B2]|A,,2[A2C2E2]D,2[A2D2F2]|E,2[E2G2B2]A,,2[A2C2E2]|
%
[V:1] "Am" e2 ag eage|"G"dB ~B2 "Em"GEGB|"Am"AE ~E2 "D"AF ~F2|"G"GBdB "Am"A4 :|
[V:2] A,,2[A2C2E2]E,,2[E2C2A2]|G,,2[G2D2B2]E,2[E2G2B2]|A,,2[A2C2E2]D,2[A2D2F2]|G,,2[G2D2B2][A,,4C4E,4]:|
%%%%%%%%%%%%%%%%%%%%%%%%
